X:1
T: Stan's Wee Jig
C:Stan Hamilton
R:Jig
Q:180
K:G
M:6/8
L:1/16
B4E2 E4B2|B4E2 E4F2|A4F2 D4F2|A4B2 A4F2|E4F2 G4A2|B4G2 E4B2|B4A2 G4F2|E6e6|
B4E2 E4B2|B4E2 E4F2|A4F2 D4F2|A4B2 A4F2|E4F2 G4A2|B4G2 E4B2|B4A2 G4F2|E6e6|
e4e2 e4d2|B4B2 B6|d4e2 d4B2|A4G2 F4D2|E4F2 G4A2|B4G2 E4B2|B4A2 G4F2|E6e6|
e2e2e2 e4d2|B4B2 B6|d4e2 d4B2|A4G2 F2E2D2|E4F2 G4A2|B4G2 E4B2|B4A2 G4F2|E6-E6||
